X:6
T:The tore of Troup, A Strathspey
C:Robert Petrie
S:Petrie's Second Collection of Strathspey Reels and Country Dances &c.
Z:Steve Wyrick , 6/5/04
N:Petrie's Second Collection, page 2
L:1/8
M:C
R:Strathspey
K:F
C|F3 F CFA,F|F3A          B(GGA)| F3F    CFA,F|BG A/B/c/B/ AFF:|
c|fafc AFcA |B>c d/c/B/A/ B(GGc)| fafc   AFcA |BdTc>B      AFFc|
  fafc AFcA |B>c d/c/B/A/ BGGA  |TB(ABc) defd |cABG        AFF|]
